X: 23567
T: Lighthouse Keeper's
R: waltz
M: 3/4
K: Amajor
|:zcd|e>ce|dc~B|A>ce|f>ga|e>cA|~f>ed|d<cA|~B2 c/d/|
e>ce|d<cB|A>ce|f>ga|1 e<cA|dcB|A3:|2 e<cA|d<BG|A3||
zag|f>ed|c<ec|B>cd|cag|~f>ed|c<a g/f/|e>cA|B3|
f>ga|e>ga|~f<ed|c<eE|F<dc|B>AG|A3||

